X: 17
T: Saddle the Pony
B: NEFR #17
M: 6/8
R: jig
K: G
D |\
"G"GBA G2B | "D"def "G"gdB | "G"GBA G2B | "D"AFD AFD |\
"G"GBA G2B | "D"def "G"gfg | "C"e{f}ge "D7"dBA | "D7"BGF "G"G2 :|
|: d |\
"Em"e2e edB | "D"def "Em"gfg | "Em"e2e edB | "D"dBA ABd |\
"Em"e2e edB | "D"def "G"gfg | "C"e{f}ge "D7"dBA | "D7"BGF "G"G2 :|


